X: 201
T:Micky Calahan's
M:4/4
R:hornpipe
L:1/8
K:G
GEDE GABA|GEDE GABc|dB eB dBGB|AGABc2BA|
GEDE GABA|GEDE GABc|dB eB dBGB|(3AAA GFG4:|
Bd|e2eg edBc|d2de dBGB|c2ecB2AG|EAAG AcBA|
GEDE GABA|GEDE GABc|dB eB dBGB|(3AAA GFG2:|

